!!!COM: Bach, Johann Sebastian
!!!CDT: 1685/3//-1750/7/28/
!!!OTL@@DE: Freu' dich sehr, O meine Seele
!!!AGN: 4-Part Chorale
!!!SCT: BH 282
!!!SCT: BWV 25
**harm	**root	**kern	**kern	**kern	**kern
!	!	!bass	!tenor	!alto	!soprno
*	*Iorgan	*Iorgan	*Iorgan	*Iorgan	*Iorgan
*M4/4	*M4/4	*M4/4	*M4/4	*M4/4	*M4/4
*met(c)	*met(c)	*met(c)	*met(c)	*met(c)	*met(c)
*MM60	*MM60	*MM60	*MM60	*MM60	*MM60
*k[f#]	*k[f#]	*k[f#]	*k[f#]	*k[f#]	*k[f#]
*G:	*G:	*G:	*G:	*G:	*G:
*>[A,A,B]	*>[A,A,B]	*>[A,A,B]	*>[A,A,B]	*>[A,A,B]	*>[A,A,B]
*>A	*>A	*>A	*>A	*>A	*>A
=1-	=1-	=1-	=1-	=1-	=1-
I	4CC	4GG	4B	4d	4g
V	4GG	4D	4F#	4d	4a
I	4CC	4G	4G	4d	4b
Vb	4GG	4F#	4A	4d	4a
=2	=2	=2	=2	=2	=2
vi	4AA	4E	8B	4e	4g
.	.	.	8c#	.	.
V	4GG	4D	4d	4A	4f#
V/V	4DD	4AA	8d	4A	4e
.	.	.	8c#	.	.
V;	4GG;	4D;	4F#;	4A;	4d;
=3	=3	=3	=3	=3	=3
Ib	4CC	4BB	4G	4d	4g
ii	4DD	4AA	4c	8e	4a
.	.	.	.	8f#	.
I	4CC	4GG	8d	8g	4b
.	.	.	8G	8d	.
Vb	4GG	4FF#	[4A	4d	8a
.	.	.	.	.	16b
.	.	.	.	.	16cc
=4	=4	=4	=4	=4	=4
I	4CC	4GG	8A]	4d	4b
.	.	.	8G	.	.
V	4GG	4DD	8G	4d	8.a
.	.	.	8F#	.	.
.	.	.	.	.	16g
I;	2CC;	2GG;	2B;	2d;	2g;
*>B	*>B	*>B	*>B	*>B	*>B
=5:|!	=5:|!	=5:|!	=5:|!	=5:|!	=5:|!
I	4CC	4G	4G	4d	4b
IVb	4FF	4E	4G	8e	4cc
.	.	.	.	16f	.
.	.	.	.	16g	.
I7b	4CC	4BB	4G	4f	4dd
IV	4FF	4C	8G	4e	4cc
.	.	.	8A	.	.
=6	=6	=6	=6	=6	=6
V7b/ii	4AA	4GG#	8B	4d	4b
.	.	.	8E	.	.
ii	4DD	4AA	8E	8c	4a
.	.	.	8F#	16e	.
.	.	.	.	16d#	.
VI;	2AA;	2EE;	2G#;	2e;	2b;
!!linebreak: 2
=7	=7	=7	=7	=7	=7
Ib	4CC	4BB	8G	4d	4dd
.	.	.	8A	.	.
I	4CC	4GG	4B	4g	4dd
IV	4FF	4C	8c	4g	4ee
.	.	.	8B	.	.
V	4GG	4D	4A	4f#	4dd
=8	=8	=8	=8	=8	=8
IVb	4FF	8E	4G	4e	4cc
.	.	8F#	.	.	.
I	4CC	4G	4G	8d	4b
.	.	.	.	8c#	.
V;	2GG;	2D;	2F#;	2d;	2a;
=9	=9	=9	=9	=9	=9
I	4CC	4G	8G	4d	4b
.	.	.	8A	.	.
I	4CC	4GG	4B	8g	4dd
.	.	.	.	8f#	.
ii	4DD	4AA	4c	8e	4cc
.	.	.	.	8f#	.
Ib	4CC	4BB	8d	4g	8b
.	.	.	8D	.	8a
=10	=10	=10	=10	=10	=10
IV7	4FF	4C	8E	4e	4g
.	.	.	8B	.	.
Vb/V	4DD	4C#	8A	4e	4a
.	.	.	8G	.	.
iiib	4EE	4D	2F#	4f#	2b
Vb/vi	4EE	4D#	.	4B	.
=11	=11	=11	=11	=11	=11
vi;	2AA;	2E;	2E;	2B;	2g;
iiiob	4EE	4D	4F	8d	4b
.	.	.	.	8e	.
V7/IV	4CC	4GG	4BB	4f	4dd
=12	=12	=12	=12	=12	=12
ii	4DD	4AA	4C	8e	4cc
.	.	.	.	8f#	.
Ib	4CC	8BB	8D	4g	4b
.	.	8C	8E	.	.
V	4GG	8D	4F#	4d	4a
.	.	8C	.	.	.
Ib	4CC	8BB	4G	4d	4g
.	.	8GG	.	.	.
=13	=13	=13	=13	=13	=13
V	2GG	2DD	4G	2d	2a
.	.	.	4F#	.	.
I;	2CC;	2GG;	2B;	2d;	2g;
==	==	==	==	==	==
*-	*-	*-	*-	*-	*-
!!chor2scor: -l 2 -s 0.6 -o %b.pmx
!!!YEC: Copyright 1994, David Huron
!!!YEC: Changes/Additions 2001 by Craig Stuart Sapp
!!!YEN: United States of America
!!!SMA: 371 Bach Chorales, edited by Ludwig Erk, C.F. Peters
!!!PDT: 1850, 1865
!!!ONB: Harmony and Root analysis done manually
